X:19
T:Boys Around the World
M:2/4
L:1/16
Z:jason
B: Bob Walters, 1950
N: Similar to "Sally Lost Her Slipper"
K:A
cd | e2ea c2ce | A2Ac E2Bc | d2c2 B2G2 | A2Ac E2 cd |
e2ea c2ce | A2Ac E2Bc | d2c2 B2G2| A6 :|
|: (3(fgf) | e2c2 a2e2 | !4!c'2!3!a2 e3c | d2B2 b2g2 | aafa e2af |
e2c2 a2e2 | !4!c'2!3!a2 e3c | d2B2 b2g2 | a3b a2 :|

